build/system/ArrowDownOneOutline.svg

<svg xmlns="http://www.w3.org/2000/svg" fill="none" viewBox="0 0 24 24" focusable="false"><path d="M0 0H24V24H0z"/><path fill="#74767B" fill-rule="evenodd" d="M20.9578 0.696997C20.9578 0.460685 20.8295 0.242989 20.6228 0.128451C20.4161 0.0139131 20.1635 0.0205792 19.9632 0.145861L17.3084 1.80575C17.004 1.99606 16.9116 2.3971 17.1019 2.70148C17.2922 3.00587 17.6932 3.09834 17.9976 2.90802L19.6578 1.87001L19.6578 7.3765C19.6578 7.73549 19.9488 8.0265 20.3078 8.0265C20.6668 8.0265 20.9578 7.73549 20.9578 7.3765L20.9578 0.696997ZM6.03031 11.0201C5.89031 11.1501 5.82031 11.3201 5.82031 11.5001C5.82031 11.6601 5.87031 11.8101 5.99031 11.9401L11.4803 17.9801C11.7603 18.2901 12.2403 18.2901 12.5203 17.9801L18.0103 11.9401C18.2503 11.6701 18.2303 11.2601 17.9703 11.0201C17.7003 10.7801 17.2903 10.7901 17.0503 11.0601L12.6503 15.8957L12.6503 5.00007C12.6503 4.64109 12.3593 4.35007 12.0003 4.35007C11.6413 4.35007 11.3503 4.64109 11.3503 5.00007L11.3503 15.8957L6.95031 11.0601C6.71031 10.8001 6.30031 10.7801 6.03031 11.0201Z"/></svg>

<svg xmlns="http://www.w3.org/2000/svg" fill="none" viewBox="0 0 24 24" focusable="false"><path fill="#74767B" fill-rule="evenodd" d="M20.95.69c0-.23-.13-.45-.33-.57a.67.67 0 0 0-.66.02L17.3 1.8c-.3.19-.39.59-.2.9.19.3.59.39.89.2l1.66-1.03v5.5c0 .36.29.65.65.65s.65-.29.65-.65zM6.03 11.02c-.14.13-.21.3-.21.48 0 .16.05.31.17.44l5.49 6.04c.28.31.76.31 1.04 0l5.49-6.04c.24-.27.22-.68-.04-.92a.65.65 0 0 0-.92.04l-4.4 4.83V5c0-.36-.3-.65-.65-.65-.36 0-.65.29-.65.65v10.89l-4.4-4.83a.66.66 0 0 0-.92-.04"/></svg>
